X:112
T:RVW2/2/112 The Tarry Sailor
C:Mr. Stacey, Hollycombe, Sussex, 28 May 1904
L:1/8
Q:1/4=120
M:3/4
I:linebreak $
K:G
"^(Editorial suggestion  " A>G | BB D2 A>G | B2 D2 (GB) |$ d2 B2 (dB) | A4 Bd | e3 d BA |$ 
w: I am|fro- lic- some I am|ea- sy good _|tem- pered and _|mild I don't|care a sin- gle|
dB G2 GB | c2 (DF) A2 | G4 |] 
w: pin my boys what the|world says _ of|me.|



